v/0.4.11/design-resources/icons/wf_icons/filter-outlined.svg

<?xml version="1.0" encoding="utf-8"?>
<!-- Generated by IcoMoon.io -->
<!DOCTYPE svg PUBLIC "-//W3C//DTD SVG 1.1//EN" "http://www.w3.org/Graphics/SVG/1.1/DTD/svg11.dtd">
<svg version="1.1" xmlns="http://www.w3.org/2000/svg" xmlns:xlink="http://www.w3.org/1999/xlink" width="512" height="512" viewBox="0 0 512 512">
<g>
</g>
	<path d="M480 64v50.745l-122.51 122.508c-24.175 24.176-37.49 56.32-37.49 90.51v98.571l-96 38.4v-136.971c0-34.19-13.314-66.334-37.49-90.51l-122.51-122.508v-50.745h416zM512 32h-480v96l131.883 131.881c18.004 18.004 28.117 42.422 28.117 67.882v184.237l160-64v-120.236c0-25.461 10.113-49.879 28.117-67.882l131.883-131.881v-96z" fill="#595959"></path>
</svg>

<svg xmlns="http://www.w3.org/2000/svg" width="512" height="512" viewBox="0 0 512 512"><path stroke="#449FDB" d="M0 0"/><path d="M480 64v50.745L357.49 237.253c-24.175 24.176-37.49 56.32-37.49 90.51v98.57l-96 38.4v-136.97c0-34.19-13.314-66.334-37.49-90.51L64 114.745V64h416zm32-32H32v96l131.883 131.88C181.887 277.886 192 302.304 192 327.764V512l160-64V327.764c0-25.46 10.113-49.88 28.117-67.882L512 128.002V32z" fill="#595959"/></svg>
